X: 27575
T: Monmouth
R: hornpipe
M: 4/4
K: Gmajor
D2|G2 G>A B>GB>d|c>AB>G G>FE>D|E>FG>E D>GB>d|c/B/A B>G G>FE>D|
G2 G>A B>GB>d|c>AB>G G>FE>D|E>GF>A G>BA>c|B>GG>F G2:|:
B>c|d>Bd>B d>Bc>e|d>Bd>B d>BA>G|d>Bd>B d>Bc>e|d>Bd>B g2 B>c|
d>Bd>B d>Bc>e|d>Bd>B d>BA>G|F>GA>B c>BA>G|F>GA>B c2:|

